X: 3
T: The Rock On The Clyde
R: jig
M: 6/8
L: 1/8
K: Emin
GEF G2A|B2e dBd|edB AAA|BGE AFD|
GEF G2A|B2e dBd|edB AGA|1 AGE E2F:|2 AGE E2f||
|:ggg fed|eee dBA|GGG AGA|BGE EGE|
D B,/C/,D EGc|Bdb g2d|edB AGA|1 AGE E2f:|2 AGE E2F||

